X: 792
T: Tie the Petticoat Tighter.
T: The Bonnie Highlander.
C:F. O'Neill.
B:O'Neill's Music of Ireland
N:O'Neill's - 792
Z:Transcribed by Stephen Foy (shf@access.digex.net)
Z:abc 1.6
R:Jig
M:6/8
K:Am
B2|c2 A BGE|c2 A BGE|G2 G G2 d|G2 G G2 B|c2 A BGE|c2 A BGE|
|A2 A A2 e|A2 A A2:|B|cde dcB|cBA BGE|g>ag gdB|g>ag gdB|
[1 cde dcB|cBA BGE|aba aec|aba aec:|[2 cde def|edc BA^G|\
A2 A A2 e|A2 A A2|]


